X: 12938
T: Fiddler's Chair, The
R: reel
M: 4/4
K: Gmajor
B/c/B Ac BE G/F/E|D2 EG DEGc|BE ~E2 CE ~E2|edBG c2 Gc|
~B2 Ac BE ~E2|D/D/D EG DEGc|Be ~e2 geBe|1 dBGc B2:|2 edBg e/f/e||
e2 d/e/f gage|gage d2 c/B/A|G2 BG dGBd|edBG edBd|
edef g2 ge|g2 ga gedB|GB ~B dg ~g|1 edBg e2:|2 edBG c2||

